src/lib/packages/icons/src/assets/filled/home-dash-trend-down.svg

<svg width="24" height="24" viewBox="0 0 24 24" fill="none" xmlns="http://www.w3.org/2000/svg">
<path fill-rule="evenodd" clip-rule="evenodd" d="M20.27 9.06205L13.588 3.56901C12.665 2.81001 11.334 2.81001 10.411 3.56901L3.72898 9.06205C3.16798 9.52305 2.90096 10.251 3.03196 10.965L4.48704 18.9471C4.70404 20.1351 5.73902 20.9991 6.94602 20.9991H17.052C18.26 20.9991 19.295 20.1351 19.511 18.9471L20.9659 10.964C21.0979 10.252 20.831 9.52305 20.27 9.06205ZM16.75 15.0191C16.75 15.1171 16.73 15.2141 16.692 15.3061C16.616 15.4891 16.47 15.6351 16.287 15.7111C16.195 15.7491 16.098 15.7691 16 15.7691H13.5C13.086 15.7691 12.75 15.4331 12.75 15.0191C12.75 14.6051 13.086 14.2691 13.5 14.2691H14.1889L12.631 12.7111L11.535 13.8901C10.992 14.4331 10.042 14.4351 9.49595 13.8901L7.46995 11.8631C7.17695 11.5701 7.17695 11.095 7.46995 10.802C7.76295 10.509 8.23798 10.509 8.53098 10.802L10.558 12.829L11.654 11.6501C12.199 11.1051 13.148 11.1061 13.693 11.6501L15.251 13.208V12.5191C15.251 12.1051 15.587 11.7691 16.001 11.7691C16.415 11.7691 16.751 12.1051 16.751 12.5191V15.0191H16.75Z" fill="currentColor"/>
</svg>

<svg xmlns="http://www.w3.org/2000/svg" width="24" height="24" fill="none"><path fill="currentColor" fill-rule="evenodd" d="m20.27 9.062-6.682-5.493a2.501 2.501 0 0 0-3.177 0L3.729 9.062a1.996 1.996 0 0 0-.697 1.903l1.455 7.982A2.5 2.5 0 0 0 6.946 21h10.106a2.5 2.5 0 0 0 2.459-2.052l1.455-7.983a1.993 1.993 0 0 0-.696-1.902Zm-3.52 5.957a.75.75 0 0 1-.75.75h-2.5a.75.75 0 0 1 0-1.5h.689l-1.558-1.558-1.096 1.18c-.543.542-1.493.544-2.039 0L7.47 11.862a.75.75 0 0 1 1.061-1.061l2.027 2.027 1.096-1.179c.545-.545 1.494-.544 2.039 0l1.558 1.558v-.689a.75.75 0 0 1 1.5 0v2.5h-.001Z" clip-rule="evenodd"/></svg>
